X: 10561
M: C|
L: 1/8
K: G
g |\
~d>ega bagb | agab a>geg |
~d>ega bagb | agc'b Ta2g2 |\
~d>ega bagb | Ta>gab a>geg |\
d>ega g>abg | {b}agc'b Ta2g2 !segno!|]


